X:1942
L:1/8
M:4/4
K:Amix
 e | AA g2 aeef | g2 ae fdde | cc g2 aeeg | fdec BBB :| a | cAAA ecce | f2 AA ecca | cAAA ecce | 
 fdec BBBa | cAAA ecce | f2 AA ecca | cA d2 ecce | fAec BBB ||

